X:47
T:Light and Airy Jig. RDO.47
M:6/8
L:1/8
Q:3/8=120
S:Robert D. Owen MS,Indiana,1826.
R:.Jig
O:Indiana,USA
A:New Harmony
Z:vmp.Chris Partington
K:F
c3AcA|FAc fcA|c3AcA|G2AB2d|!
c3AcA|FAc fcA|BgB AfA|G2AB2d:|!
|:f>gf f>cA|f>gf f>af|f>gf fcA|G2AB2d|!
faf gbg|faf ege|f>edc2A|G2AB2d:|!
|:cAFF2A|cAF Acf|cAFF2A|G2AB2d|!
cAF FAc|fed cBA|BgB AfA|G2AB2d:|

